src/actions/22/crosshairs.svg

<svg xmlns="http://www.w3.org/2000/svg" viewBox="0 0 22 22">
  <defs id="defs3051">
    <style type="text/css" id="current-color-scheme">
      .ColorScheme-Text {
        color:#2e3440;
      }
      </style>
  </defs>
 <path 
     style="fill:currentColor;fill-opacity:1;stroke:none" 
	 d="M 10.5 2 L 10.5 4.0253906 A 7 7 0 0 0 4.0175781 10.5 L 2 10.5 L 2 11.5 L 4.0253906 11.5 A 7 7 0 0 0 10.5 17.982422 L 10.5 20 L 11.5 20 L 11.5 17.974609 A 7 7 0 0 0 17.982422 11.5 L 20 11.5 L 20 10.5 L 17.974609 10.5 A 7 7 0 0 0 11.5 4.0175781 L 11.5 2 L 10.5 2 z M 10.5 5.0253906 L 10.5 7.0351562 A 4 4 0 0 0 7.0371094 10.5 L 5.0253906 10.5 A 6 6 0 0 1 10.5 5.0253906 z M 11.5 5.0253906 A 6 6 0 0 1 16.974609 10.5 L 14.964844 10.5 A 4 4 0 0 0 11.5 7.0371094 L 11.5 5.0253906 z M 10.5 8.0410156 L 10.5 10.5 L 8.046875 10.5 A 3 3 0 0 1 10.5 8.0410156 z M 11.5 8.046875 A 3 3 0 0 1 13.958984 10.5 L 11.5 10.5 L 11.5 8.046875 z M 5.0253906 11.5 L 7.0351562 11.5 A 4 4 0 0 0 10.5 14.962891 L 10.5 16.974609 A 6 6 0 0 1 5.0253906 11.5 z M 8.0410156 11.5 L 10.5 11.5 L 10.5 13.953125 A 3 3 0 0 1 8.0410156 11.5 z M 11.5 11.5 L 13.953125 11.5 A 3 3 0 0 1 11.5 13.958984 L 11.5 11.5 z M 14.962891 11.5 L 16.974609 11.5 A 6 6 0 0 1 11.5 16.974609 L 11.5 14.964844 A 4 4 0 0 0 14.962891 11.5 z "
	 class="ColorScheme-Text"
     />
</svg>

<svg viewBox="0 0 22 22" xmlns="http://www.w3.org/2000/svg">
 <defs>
  <style type="text/css">.ColorScheme-Text {
        color:#2e3440;
      }</style>
 </defs>
 <path class="ColorScheme-Text" d="m10.5 2v2.0254a7 7 0 0 0-6.4824 6.4746h-2.0176v1h2.0254a7 7 0 0 0 6.4746 6.4824v2.0176h1v-2.0254a7 7 0 0 0 6.4824-6.4746h2.0176v-1h-2.0254a7 7 0 0 0-6.4746-6.4824v-2.0176h-1zm0 3.0254v2.0098a4 4 0 0 0-3.4629 3.4648h-2.0117a6 6 0 0 1 5.4746-5.4746zm1 0a6 6 0 0 1 5.4746 5.4746h-2.0098a4 4 0 0 0-3.4648-3.4629v-2.0117zm-1 3.0156v2.459h-2.4531a3 3 0 0 1 2.4531-2.459zm1 0.0058594a3 3 0 0 1 2.459 2.4531h-2.459v-2.4531zm-6.4746 3.4531h2.0098a4 4 0 0 0 3.4648 3.4629v2.0117a6 6 0 0 1-5.4746-5.4746zm3.0156 0h2.459v2.4531a3 3 0 0 1-2.459-2.4531zm3.459 0h2.4531a3 3 0 0 1-2.4531 2.459v-2.459zm3.4629 0h2.0117a6 6 0 0 1-5.4746 5.4746v-2.0098a4 4 0 0 0 3.4629-3.4648z" fill="currentColor"/>
</svg>
